contributed-vectors/signal_alt.svg

<svg width="192" height="192" viewBox="0 0 192 192" fill="none" xmlns="http://www.w3.org/2000/svg">
<rect x="172" y="20" width="152" height="152" rx="10" transform="rotate(90 172 20)" fill="#9ABEFF"/>
<path d="M136 94C136 115.539 118.539 133 97 133C90.3054 133 78.5 128.341 78.5 128.341L62.0388 131.039C61.3891 131.145 60.8156 130.606 60.8823 129.951L62.6585 112.5C62.6585 112.5 58 100.695 58 94C58 72.4609 75.4609 55 97 55C118.539 55 136 72.4609 136 94Z" stroke="white" stroke-width="5" stroke-linecap="round" stroke-dasharray="8 8"/>
<path d="M130 94C130 112.225 115.225 127 97 127C91.3354 127 81.3462 123.058 81.3462 123.058L67.6157 125.308C66.966 125.415 66.3925 124.875 66.4592 124.22L67.9418 109.654C67.9418 109.654 64 99.6646 64 94C64 75.7746 78.7746 61 97 61C115.225 61 130 75.7746 130 94Z" fill="white"/>
</svg>

<svg xmlns="http://www.w3.org/2000/svg" width="192" height="192" fill="none"><rect width="152" height="152" x="172" y="20" fill="#9ABEFF" rx="10" transform="rotate(90 172 20)"/><path stroke="#fff" stroke-dasharray="8 8" stroke-linecap="round" stroke-width="5" d="M136 94c0 21.539-17.461 39-39 39-6.695 0-18.5-4.659-18.5-4.659l-16.461 2.698a1 1 0 0 1-1.157-1.088l1.776-17.451S58 100.695 58 94c0-21.54 17.46-39 39-39 21.539 0 39 17.46 39 39Z"/><path fill="#fff" d="M130 94c0 18.225-14.775 33-33 33-5.665 0-15.654-3.942-15.654-3.942l-13.73 2.25a1 1 0 0 1-1.157-1.088l1.483-14.566S64 99.664 64 94c0-18.225 14.775-33 33-33s33 14.775 33 33Z"/></svg>
